assets/img/steps/i-4.svg

<svg width="70" height="54" viewBox="0 0 70 54" fill="none" xmlns="http://www.w3.org/2000/svg">
<path d="M27.4519 40.1511C26.8376 40.1512 26.2371 39.9691 25.7263 39.6278C25.2155 39.2866 24.8173 38.8016 24.5822 38.2341C24.3471 37.6665 24.2855 37.0421 24.4053 36.4396C24.5251 35.8371 24.8209 35.2836 25.2553 34.8492C25.6896 34.4149 26.243 34.119 26.8455 33.9992C27.448 33.8793 28.0725 33.9408 28.64 34.1758C29.2075 34.4109 29.6926 34.809 30.0339 35.3197C30.3752 35.8305 30.5574 36.431 30.5574 37.0453C30.5565 37.8687 30.229 38.6581 29.6468 39.2403C29.0646 39.8226 28.2753 40.1501 27.4519 40.1511ZM27.4519 35.6035C27.1666 35.6034 26.8877 35.688 26.6505 35.8464C26.4133 36.0048 26.2284 36.2301 26.1193 36.4936C26.0101 36.7571 25.9815 37.0471 26.0371 37.3269C26.0927 37.6066 26.2301 37.8636 26.4318 38.0653C26.6335 38.267 26.8905 38.4044 27.1703 38.46C27.45 38.5157 27.74 38.4871 28.0036 38.3779C28.2671 38.2687 28.4923 38.0838 28.6507 37.8466C28.8092 37.6094 28.8937 37.3305 28.8936 37.0453C28.8932 36.663 28.7412 36.2966 28.4709 36.0263C28.2006 35.756 27.8341 35.6039 27.4519 35.6035Z" fill="#EE794F"/>
<path d="M56.0671 50.6638C55.4528 50.6639 54.8523 50.4818 54.3415 50.1405C53.8307 49.7993 53.4325 49.3142 53.1974 48.7467C52.9623 48.1792 52.9008 47.5546 53.0206 46.9521C53.1404 46.3496 53.4362 45.7962 53.8706 45.3618C54.305 44.9274 54.8584 44.6316 55.4609 44.5118C56.0634 44.392 56.6879 44.4535 57.2555 44.6886C57.823 44.9237 58.3081 45.3219 58.6493 45.8327C58.9906 46.3435 59.1727 46.944 59.1726 47.5583C59.1716 48.3816 58.8441 49.171 58.2619 49.7532C57.6798 50.3353 56.8904 50.6628 56.0671 50.6638ZM56.0671 46.1162C55.7819 46.1161 55.503 46.2007 55.2658 46.3591C55.0286 46.5175 54.8437 46.7427 54.7345 47.0062C54.6253 47.2697 54.5967 47.5597 54.6523 47.8394C54.7079 48.1192 54.8453 48.3762 55.0469 48.5779C55.2486 48.7796 55.5055 48.917 55.7853 48.9727C56.0651 49.0284 56.355 48.9998 56.6186 48.8907C56.8821 48.7815 57.1073 48.5967 57.2658 48.3595C57.4243 48.1224 57.5089 47.8435 57.5089 47.5583C57.5085 47.176 57.3565 46.8095 57.0862 46.5391C56.8159 46.2687 56.4494 46.1166 56.0671 46.1162Z" fill="#EE794F"/>
<path d="M61.7539 33.4597H50.41C50.1894 33.4597 49.9778 33.3721 49.8218 33.2161C49.6658 33.0601 49.5781 32.8485 49.5781 32.6279V21.2813C49.5781 21.0607 49.6658 20.8491 49.8218 20.6931C49.9778 20.5371 50.1894 20.4495 50.41 20.4495H61.7565C61.9772 20.4495 62.1887 20.5371 62.3447 20.6931C62.5007 20.8491 62.5884 21.0607 62.5884 21.2813V32.6279C62.5884 32.7373 62.5668 32.8457 62.5248 32.9468C62.4828 33.0479 62.4213 33.1397 62.3438 33.217C62.2663 33.2943 62.1743 33.3555 62.073 33.3972C61.9718 33.4388 61.8633 33.4601 61.7539 33.4597ZM51.2392 31.796H60.922V22.1132H51.2418L51.2392 31.796Z" fill="#EE794F"/>
<path d="M66.8351 10.6479H45.296C44.5831 10.6488 43.8998 10.9324 43.3957 11.4365C42.8917 11.9406 42.6082 12.624 42.6074 13.3368V51.2157C42.6082 51.9285 42.8917 52.6119 43.3957 53.116C43.8998 53.6201 44.5831 53.9037 45.296 53.9046H66.8351C67.548 53.9037 68.2314 53.6201 68.7354 53.116C69.2394 52.6119 69.5229 51.9285 69.5237 51.2157V13.3368C69.5229 12.624 69.2394 11.9406 68.7354 11.4365C68.2314 10.9324 67.548 10.6488 66.8351 10.6479ZM67.86 51.2157C67.8597 51.4874 67.7517 51.748 67.5595 51.9402C67.3674 52.1324 67.1069 52.2405 66.8351 52.2409H45.296C45.0242 52.2405 44.7637 52.1324 44.5716 51.9402C44.3795 51.748 44.2714 51.4874 44.2711 51.2157V13.3368C44.2714 13.0651 44.3795 12.8045 44.5716 12.6123C44.7637 12.4202 45.0242 12.312 45.296 12.3117H66.8351C67.1069 12.312 67.3674 12.4202 67.5595 12.6123C67.7517 12.8045 67.8597 13.0651 67.86 13.3368V51.2157Z" fill="#354BAC"/>
<path d="M40.1135 41.9257H2.49558C2.27495 41.9257 2.06337 41.838 1.90736 41.682C1.75136 41.526 1.66372 41.3144 1.66372 41.0938V2.49558C1.66372 2.27495 1.75136 2.06337 1.90736 1.90736C2.06337 1.75136 2.27495 1.66372 2.49558 1.66372H52.4071C52.6277 1.66372 52.8393 1.75136 52.9953 1.90736C53.1513 2.06337 53.2389 2.27495 53.2389 2.49558V7.73628C53.2389 7.95691 53.3266 8.16849 53.4826 8.3245C53.6386 8.4805 53.8502 8.56814 54.0708 8.56814C54.2914 8.56814 54.503 8.4805 54.659 8.3245C54.815 8.16849 54.9027 7.95691 54.9027 7.73628V2.49558C54.902 1.83392 54.6388 1.19957 54.1709 0.731716C53.7031 0.263857 53.0687 0.000704635 52.4071 0H2.49558C1.83392 0.000704635 1.19957 0.263857 0.731715 0.731716C0.263857 1.19957 0.000704635 1.83392 0 2.49558V41.0938C0.000704635 41.7555 0.263857 42.3898 0.731715 42.8577C1.19957 43.3255 1.83392 43.5887 2.49558 43.5894H40.1135C40.3342 43.5894 40.5458 43.5017 40.7018 43.3457C40.8578 43.1897 40.9454 42.9781 40.9454 42.7575C40.9454 42.5369 40.8578 42.3253 40.7018 42.1693C40.5458 42.0133 40.3342 41.9257 40.1135 41.9257Z" fill="#354BAC"/>
<path d="M58.0933 25.0988L55.4094 27.7824L54.0971 26.4701C53.9408 26.3152 53.7296 26.2286 53.5096 26.2291C53.2896 26.2296 53.0788 26.3172 52.9233 26.4728C52.7677 26.6284 52.6801 26.8392 52.6797 27.0592C52.6792 27.2792 52.766 27.4904 52.9208 27.6467L54.8215 29.5473C54.9775 29.7032 55.189 29.7908 55.4096 29.7908C55.6302 29.7908 55.8417 29.7032 55.9977 29.5473L59.2696 26.2754C59.349 26.1987 59.4124 26.1069 59.456 26.0054C59.4996 25.9039 59.5226 25.7948 59.5235 25.6843C59.5245 25.5738 59.5034 25.4643 59.4616 25.3621C59.4198 25.2598 59.358 25.167 59.2799 25.0889C59.2018 25.0108 59.1089 24.949 59.0067 24.9072C58.9045 24.8653 58.7949 24.8443 58.6845 24.8452C58.574 24.8462 58.4649 24.8692 58.3634 24.9128C58.2619 24.9563 58.1701 25.0197 58.0933 25.0992V25.0988Z" fill="#354BAC"/>
<path d="M38.8667 19.8216V17.5939C38.8666 17.1919 38.7331 16.8013 38.487 16.4834C38.2409 16.1656 37.8962 15.9384 37.5071 15.8377L35.5805 15.3412L36.592 13.6269C36.7959 13.2804 36.879 12.8761 36.8283 12.4773C36.7775 12.0785 36.5957 11.7078 36.3115 11.4235L34.7357 9.84928C34.4512 9.56494 34.0803 9.38314 33.6813 9.33243C33.2823 9.28172 32.8778 9.36497 32.5312 9.56911L30.8179 10.5803L30.3212 8.6514C30.2203 8.26238 29.9931 7.91786 29.6752 7.67191C29.3574 7.42596 28.9668 7.29251 28.5649 7.29248H26.3356C25.9338 7.29278 25.5436 7.42637 25.226 7.67229C24.9083 7.91821 24.6812 8.26257 24.5803 8.6514L24.0839 10.578L22.3696 9.56612C22.0232 9.36218 21.6189 9.27907 21.2201 9.32984C20.8213 9.38061 20.4507 9.56239 20.1665 9.84662L18.591 11.4222C18.3068 11.7067 18.1251 12.0775 18.0745 12.4764C18.0239 12.8753 18.1071 13.2797 18.3111 13.6262L19.3223 15.3395L17.3947 15.8387C17.0056 15.9394 16.6609 16.1666 16.4149 16.4844C16.1688 16.8023 16.0352 17.1929 16.0352 17.5949V19.8226C16.0353 20.2248 16.1689 20.6155 16.4152 20.9334C16.6615 21.2514 17.0064 21.4785 17.3957 21.5791L19.3223 22.0756L18.3108 23.7899C18.1069 24.1364 18.0238 24.5407 18.0746 24.9395C18.1253 25.3383 18.3071 25.709 18.5913 25.9933L20.1662 27.5682C20.4506 27.8526 20.8215 28.0344 21.2205 28.0851C21.6195 28.1358 22.0241 28.0526 22.3706 27.8484L24.0839 26.8372L24.5807 28.7647C24.6815 29.1539 24.9087 29.4985 25.2265 29.7446C25.5444 29.9906 25.9349 30.1242 26.3369 30.1243H28.5663C28.9684 30.1242 29.3591 29.9905 29.6771 29.7442C29.995 29.4979 30.2221 29.1531 30.3228 28.7637L30.8193 26.8372L32.5336 27.849C32.88 28.0529 33.2843 28.1359 33.683 28.0851C34.0818 28.0344 34.4524 27.8527 34.7367 27.5685L36.3122 25.993C36.5964 25.7085 36.778 25.3377 36.8287 24.9388C36.8793 24.5398 36.7961 24.1354 36.592 23.7889L35.5808 22.0756L37.5084 21.5788C37.8975 21.4778 38.242 21.2503 38.4878 20.9323C38.7336 20.6143 38.8669 20.2236 38.8667 19.8216ZM37.203 19.8216C37.2029 19.8548 37.1919 19.8871 37.1717 19.9134C37.1514 19.9397 37.1229 19.9586 37.0908 19.967L34.0931 20.7396C33.9683 20.7718 33.8527 20.8326 33.7553 20.9171C33.658 21.0017 33.5817 21.1077 33.5323 21.2268C33.483 21.3459 33.462 21.4748 33.471 21.6034C33.4801 21.732 33.5189 21.8568 33.5844 21.9678L35.1573 24.6327C35.1742 24.6615 35.1812 24.695 35.177 24.7282C35.1729 24.7613 35.1578 24.7921 35.1343 24.8157L33.5584 26.391C33.535 26.4144 33.5044 26.4293 33.4716 26.4336C33.4387 26.4379 33.4054 26.4312 33.3767 26.4146L30.7111 24.8414C30.6001 24.7758 30.4753 24.7369 30.3467 24.7279C30.218 24.7188 30.0891 24.7398 29.9699 24.7891C29.8508 24.8385 29.7447 24.9148 29.6602 25.0122C29.5756 25.1096 29.5148 25.2253 29.4826 25.3501L28.7107 28.3448C28.7024 28.3772 28.6836 28.406 28.6572 28.4265C28.6308 28.447 28.5984 28.4582 28.5649 28.4583H26.3356C26.3023 28.4583 26.2701 28.4473 26.2438 28.427C26.2175 28.4067 26.1986 28.3783 26.1902 28.3462L25.4179 25.3488C25.3857 25.2239 25.3249 25.1082 25.2403 25.0109C25.1558 24.9135 25.0497 24.8371 24.9306 24.7878C24.8114 24.7385 24.6825 24.7175 24.5538 24.7266C24.4252 24.7356 24.3004 24.7745 24.1894 24.84L21.5248 26.4126C21.496 26.4296 21.4625 26.4365 21.4293 26.4324C21.3962 26.4282 21.3654 26.4132 21.3417 26.3896L19.7679 24.8161C19.7443 24.7925 19.7292 24.7618 19.7249 24.7288C19.7206 24.6957 19.7274 24.6622 19.7442 24.6334L21.3175 21.9678C21.383 21.8568 21.4218 21.732 21.4308 21.6034C21.4398 21.4748 21.4188 21.3459 21.3695 21.2268C21.3202 21.1077 21.2438 21.0017 21.1465 20.9171C21.0492 20.8326 20.9335 20.7718 20.8087 20.7396L17.812 19.9673C17.7797 19.959 17.751 19.9402 17.7305 19.9138C17.7101 19.8874 17.6989 19.855 17.6989 19.8216V17.5939C17.6989 17.5607 17.7099 17.5284 17.7302 17.5021C17.7505 17.4758 17.7789 17.4569 17.811 17.4485L20.8087 16.6758C20.9336 16.6437 21.0493 16.5829 21.1466 16.4983C21.244 16.4138 21.3204 16.3077 21.3697 16.1886C21.419 16.0694 21.44 15.9405 21.4309 15.8118C21.4219 15.6832 21.383 15.5584 21.3175 15.4474L19.7446 12.7827C19.7276 12.754 19.7206 12.7204 19.7248 12.6873C19.729 12.6542 19.744 12.6234 19.7675 12.5997L21.3434 11.0242C21.3669 11.0008 21.3974 10.9858 21.4303 10.9816C21.4631 10.9774 21.4965 10.9842 21.5251 11.0009L24.19 12.5741C24.3011 12.6397 24.4258 12.6785 24.5545 12.6876C24.6831 12.6967 24.8121 12.6757 24.9313 12.6264C25.0504 12.577 25.1564 12.5006 25.241 12.4033C25.3256 12.3059 25.3863 12.1902 25.4185 12.0654L26.1905 9.069C26.1988 9.03669 26.2177 9.00808 26.2441 8.98766C26.2704 8.96724 26.3029 8.95617 26.3362 8.9562H28.5656C28.5988 8.95613 28.6311 8.96707 28.6574 8.9873C28.6837 9.00753 28.7026 9.03591 28.711 9.068L29.4833 12.0654C29.5155 12.1902 29.5763 12.3059 29.6608 12.4033C29.7454 12.5006 29.8514 12.577 29.9706 12.6264C30.0897 12.6757 30.2187 12.6967 30.3473 12.6876C30.476 12.6785 30.6008 12.6397 30.7118 12.5741L33.3764 11.0016C33.4051 10.9844 33.4387 10.9773 33.4719 10.9814C33.5051 10.9856 33.5359 11.0008 33.5594 11.0245L35.1346 12.5994C35.1582 12.6229 35.1733 12.6535 35.1775 12.6865C35.1818 12.7195 35.175 12.753 35.1583 12.7817L33.585 15.4474C33.5195 15.5584 33.4806 15.6832 33.4716 15.8118C33.4625 15.9405 33.4835 16.0694 33.5328 16.1886C33.5821 16.3077 33.6585 16.4138 33.7559 16.4983C33.8532 16.5829 33.9689 16.6437 34.0938 16.6758L37.0915 17.4485C37.1236 17.457 37.152 17.4758 37.1723 17.5021C37.1925 17.5284 37.2036 17.5607 37.2036 17.5939L37.203 19.8216Z" fill="#354BAC"/>
<path d="M27.4499 14.4614C26.61 14.4614 25.7889 14.7105 25.0905 15.1771C24.3921 15.6438 23.8478 16.307 23.5264 17.083C23.205 17.8591 23.1209 18.7129 23.2847 19.5367C23.4486 20.3605 23.8531 21.1172 24.447 21.7112C25.0409 22.3051 25.7976 22.7096 26.6214 22.8734C27.4452 23.0373 28.2991 22.9532 29.0751 22.6318C29.8511 22.3103 30.5144 21.766 30.981 21.0676C31.4477 20.3692 31.6967 19.5482 31.6967 18.7082C31.6954 17.5823 31.2476 16.5029 30.4514 15.7067C29.6553 14.9106 28.5758 14.4627 27.4499 14.4614ZM27.4499 21.291C26.939 21.291 26.4396 21.1395 26.0148 20.8556C25.59 20.5718 25.2589 20.1683 25.0634 19.6963C24.8679 19.2243 24.8168 18.7049 24.9165 18.2038C25.0162 17.7028 25.2622 17.2425 25.6235 16.8813C25.9848 16.52 26.4451 16.274 26.9462 16.1744C27.4473 16.0748 27.9667 16.126 28.4387 16.3215C28.9107 16.5171 29.3141 16.8482 29.5979 17.2731C29.8816 17.6979 30.0331 18.1973 30.033 18.7082C30.0321 19.393 29.7597 20.0495 29.2755 20.5337C28.7912 21.0178 28.1347 21.2902 27.4499 21.291Z" fill="#354BAC"/>
</svg>

<svg width="70" height="54" fill="none" xmlns="http://www.w3.org/2000/svg"><path d="M27.452 40.151a3.105 3.105 0 11-.001-6.21 3.105 3.105 0 010 6.21zm0-4.548a1.442 1.442 0 100 2.885 1.442 1.442 0 000-2.885zM56.067 50.664a3.105 3.105 0 110-6.21 3.105 3.105 0 010 6.21zm0-4.548a1.442 1.442 0 100 2.885 1.442 1.442 0 000-2.885zM61.754 33.46H50.41a.832.832 0 01-.832-.832V21.28a.832.832 0 01.832-.831h11.347a.832.832 0 01.831.831v11.347a.831.831 0 01-.834.832zm-10.515-1.664h9.683v-9.683h-9.68l-.003 9.683z" fill="#EE794F"/><path d="M66.835 10.648H45.296a2.692 2.692 0 00-2.689 2.689v37.879a2.692 2.692 0 002.689 2.689h21.54a2.692 2.692 0 002.688-2.69V13.338a2.692 2.692 0 00-2.689-2.69zm1.025 40.568a1.026 1.026 0 01-1.025 1.025H45.296a1.026 1.026 0 01-1.025-1.025v-37.88a1.027 1.027 0 011.025-1.024h21.54a1.026 1.026 0 011.024 1.025v37.879z" fill="#354BAC"/><path d="M40.114 41.926H2.495a.832.832 0 01-.832-.832V2.496a.832.832 0 01.832-.832h49.911a.832.832 0 01.832.832v5.24a.832.832 0 001.664 0v-5.24A2.498 2.498 0 0052.407 0H2.496A2.498 2.498 0 000 2.496v38.598a2.498 2.498 0 002.496 2.495h37.618a.832.832 0 000-1.663zM58.093 25.099l-2.684 2.683-1.312-1.312a.832.832 0 00-1.176 1.177l1.9 1.9a.832.832 0 001.177 0l3.272-3.272a.832.832 0 10-1.177-1.176z" fill="#354BAC"/><path d="M38.867 19.822v-2.228a1.815 1.815 0 00-1.36-1.756l-1.926-.497 1.011-1.714a1.815 1.815 0 00-.28-2.204L34.736 9.85a1.815 1.815 0 00-2.205-.28l-1.713 1.011-.497-1.929a1.814 1.814 0 00-1.756-1.359h-2.23a1.814 1.814 0 00-1.755 1.36l-.496 1.926-1.714-1.012a1.814 1.814 0 00-2.204.28l-1.575 1.576a1.815 1.815 0 00-.28 2.204l1.011 1.713-1.927.5a1.814 1.814 0 00-1.36 1.756v2.228a1.814 1.814 0 001.36 1.756l1.927.497-1.011 1.714a1.815 1.815 0 00.28 2.203l1.575 1.575a1.814 1.814 0 002.205.28l1.713-1.01.497 1.927a1.815 1.815 0 001.756 1.36h2.23a1.815 1.815 0 001.756-1.361l.496-1.927 1.715 1.012a1.814 1.814 0 002.203-.28l1.575-1.576a1.815 1.815 0 00.28-2.204l-1.011-1.713 1.927-.497a1.814 1.814 0 001.359-1.757zm-1.664 0a.152.152 0 01-.112.145l-2.998.773a.833.833 0 00-.509 1.228l1.573 2.665a.151.151 0 01-.023.183l-1.576 1.575a.15.15 0 01-.181.024L30.71 24.84a.83.83 0 00-1.228.51l-.772 2.994a.15.15 0 01-.146.113h-2.23a.15.15 0 01-.145-.112l-.772-2.997a.831.831 0 00-1.229-.509l-2.664 1.573a.151.151 0 01-.183-.023l-1.574-1.574a.151.151 0 01-.024-.183l1.573-2.665a.831.831 0 00-.508-1.228l-2.997-.773a.15.15 0 01-.113-.145v-2.228a.15.15 0 01.112-.146l2.998-.772a.83.83 0 00.508-1.229l-1.572-2.664a.15.15 0 01.022-.183l1.576-1.576a.15.15 0 01.182-.023l2.665 1.573a.832.832 0 001.229-.509l.771-2.996a.15.15 0 01.146-.113h2.23a.15.15 0 01.145.112l.772 2.997a.834.834 0 001.229.51l2.664-1.573a.15.15 0 01.183.022l1.576 1.575a.15.15 0 01.023.183l-1.573 2.665a.831.831 0 00.509 1.229l2.998.773a.15.15 0 01.112.145l-.001 2.228z" fill="#354BAC"/><path d="M27.45 14.461a4.247 4.247 0 100 8.495 4.247 4.247 0 000-8.495zm0 6.83a2.583 2.583 0 110-5.165 2.583 2.583 0 010 5.165z" fill="#354BAC"/></svg>
